assets/images/script/s-5-e1.svg

<svg fill="none" height="155" viewBox="0 0 229 155" width="229" xmlns="http://www.w3.org/2000/svg"><path d="m51.8271 135.217c-.7611 0-2.3435-.314-1.2161.971 6.568 7.485 16.1409 12.067 25.0516 14.275 28.7494 7.122 70.8014-10.7 72.4184-49.409 1.705-40.8025-51.4763-35.9383-74.2425-35.618-18.8008.2645-37.4823 2.1338-56.1837 4.2271-1.9622.2196-14.77643 1.2566-14.65393 1.178 6.48332-4.1561 14.71893-6.2701 21.70733-8.8006 25.2782-9.1532 50.9913-15.0704 76.9788-20.9275 27.476-6.1924 54.975-12.2475 82.451-18.4328 12.847-2.892 25.642-5.6816 37.699-11.6418 1.307-.6459 6.966-2.95512 2.433-3.04906-9.157-.18974-18.326.07789-27.484 0-11.791-.10028-24.765.32083-36.24-3.46482-2.721-.89754 5.573-1.20333 8.391-1.52452" stroke="#000" stroke-linecap="round" stroke-width="5"/></svg>

<svg width="229" height="155" viewBox="0 0 229 155" fill="none" xmlns="http://www.w3.org/2000/svg">
<path d="M51.8271 135.217C51.066 135.217 49.4836 134.903 50.611 136.188C57.179 143.673 66.7519 148.255 75.6626 150.463C104.412 157.585 146.464 139.763 148.081 101.054C149.786 60.2515 96.6047 65.1157 73.8385 65.436C55.0377 65.7005 36.3562 67.5698 17.6548 69.6631C15.6926 69.8827 2.87837 70.9197 3.00087 70.8411C9.48419 66.685 17.7198 64.571 24.7082 62.0405C49.9864 52.8873 75.6995 46.9701 101.687 41.113C129.163 34.9206 156.662 28.8655 184.138 22.6802C196.985 19.7882 209.78 16.9986 221.837 11.0384C223.144 10.3925 228.803 8.08328 224.27 7.98934C215.113 7.7996 205.944 8.06723 196.786 7.98934C184.995 7.88906 172.021 8.31017 160.546 4.52452C157.825 3.62698 166.119 3.32119 168.937 3" stroke="black" stroke-width="5" stroke-linecap="round"/>
</svg>
